src/assets/images/group2.svg

<svg fill="none" height="18" viewBox="0 0 18 18" width="18" xmlns="http://www.w3.org/2000/svg"><g fill="#5a57c6"><path d="m9.30077 3.80337-1.7865 1.7586c-.0162.0162-.0162.0459.0027.0648l1.6227 1.6227c.009.009.0162.0126.0342.0135.0135 0 .0243-.0054.0342-.0144l1.46703-1.5426c.0837-.0882.1989-.1386.3204-.1395.1251-.0018.2385.0459.324.1314l4.4253 4.42533.216-.20973c.8532-.8532 1.323-1.9872 1.323-3.1941s-.4698-2.3409-1.323-3.1941-1.9872-1.323-3.1941-1.323-2.3409.4698-3.19413 1.323l-.2313.2313c-.0135.0162-.0252.0324-.0405.0468z"/><path d="m7.18111 10.7991c-.04195-.0417-.07529-.0912-.09809-.1457s-.03462-.113-.03479-.1721c-.00016-.0591.01133-.1177.03382-.1723.02249-.0547.05554-.1044.09726-.1462.04163-.042.09113-.0753.14566-.0981.05452-.0228.11301-.0346.17212-.0348.0591-.0002.11766.0113.17231.0338.05466.0225.10434.0556.14621.0973l3.94829 3.924 1.2231-1.2222-2.4705-2.4363c-.0421-.0415-.0756-.0908-.0987-.1453-.023-.0544-.0351-.1128-.0355-.1719s.0108-.11775.0331-.1725c.0222-.05475.0551-.10458.0966-.14663.0415-.04212.0908-.07566.1453-.09868.0544-.02303.1128-.0351.1719-.03551.0591-.00042.1177.01082.1725.03307.0547.02226.1046.05509.1466.09662l2.475 2.44173 1.476-1.4751-4.0914-4.09233-1.14839 1.2078c-.08685.09204-.19142.16555-.30742.21613s-.24104.07717-.36758.07817c-.12649.00191-.25207-.02165-.36927-.06927-.1172-.04763-.22362-.11834-.31293-.20793l-1.6227-1.6227c-.08821-.08772-.15814-.19207-.20572-.30701-.04758-.11495-.07188-.23819-.07148-.36259 0-.2529.0981-.4914.2772-.6696l1.5264-1.5012c-.8397-.7866-1.9287-1.2195-3.0852-1.2195-1.2069 0-2.3409.4698-3.1941 1.323s-1.322999 1.9872-1.322999 3.1941.469799 2.3409 1.322999 3.1941l5.5278 5.52783c.3798.3798.8775.5697 1.3761.5697s.99719-.1899 1.37609-.5688l.72-.72z"/></g></svg>

<svg width="18" height="18" viewBox="0 0 18 18" fill="none" xmlns="http://www.w3.org/2000/svg">
<path d="M9.30077 3.80337L7.51427 5.56197C7.49807 5.57817 7.49807 5.60787 7.51697 5.62677L9.13967 7.24947C9.14867 7.25847 9.15587 7.26207 9.17387 7.26297C9.18737 7.26297 9.19817 7.25757 9.20807 7.24857L10.6751 5.70597C10.7588 5.61777 10.874 5.56737 10.9955 5.56647C11.1206 5.56467 11.234 5.61237 11.3195 5.69787L15.7448 10.1232L15.9608 9.91347C16.814 9.06027 17.2838 7.92627 17.2838 6.71937C17.2838 5.51247 16.814 4.37847 15.9608 3.52527C15.1076 2.67207 13.9736 2.20227 12.7667 2.20227C11.5598 2.20227 10.4258 2.67207 9.57257 3.52527L9.34127 3.75657C9.32777 3.77277 9.31607 3.78897 9.30077 3.80337Z" fill="#5A57C6"/>
<path d="M7.18111 10.7991C7.13916 10.7574 7.10582 10.7079 7.08302 10.6534C7.06022 10.5989 7.0484 10.5404 7.04823 10.4813C7.04807 10.4222 7.05956 10.3636 7.08205 10.309C7.10454 10.2543 7.13759 10.2046 7.17931 10.1628C7.22094 10.1208 7.27044 10.0875 7.32497 10.0647C7.37949 10.0419 7.43798 10.0301 7.49709 10.0299C7.55619 10.0297 7.61475 10.0412 7.6694 10.0637C7.72406 10.0862 7.77374 10.1193 7.81561 10.161L11.7639 14.085L12.987 12.8628L10.5165 10.4265C10.4744 10.385 10.4409 10.3357 10.4178 10.2812C10.3948 10.2268 10.3827 10.1684 10.3823 10.1093C10.3819 10.0502 10.3931 9.99155 10.4154 9.9368C10.4376 9.88205 10.4705 9.83222 10.512 9.79017C10.5535 9.74805 10.6028 9.71451 10.6573 9.69149C10.7117 9.66846 10.7701 9.65639 10.8292 9.65598C10.8883 9.65556 10.9469 9.6668 11.0017 9.68905C11.0564 9.71131 11.1063 9.74414 11.1483 9.78567L13.6233 12.2274L15.0993 10.7523L11.0079 6.65997L9.85951 7.86777C9.77266 7.95981 9.66809 8.03332 9.55209 8.0839C9.43609 8.13448 9.31105 8.16107 9.18451 8.16207C9.05802 8.16398 8.93244 8.14042 8.81524 8.0928C8.69804 8.04517 8.59162 7.97446 8.50231 7.88487L6.87961 6.26217C6.7914 6.17445 6.72147 6.0701 6.67389 5.95516C6.62631 5.84021 6.60201 5.71697 6.60241 5.59257C6.60241 5.33967 6.70051 5.10117 6.87961 4.92297L8.40601 3.42177C7.56631 2.63517 6.47731 2.20227 5.32081 2.20227C4.11391 2.20227 2.97991 2.67207 2.12671 3.52527C1.27351 4.37847 0.803711 5.51247 0.803711 6.71937C0.803711 7.92627 1.27351 9.06027 2.12671 9.91347L7.65451 15.4413C8.03431 15.8211 8.53201 16.011 9.03061 16.011C9.52921 16.011 10.0278 15.8211 10.4067 15.4422L11.1267 14.7222L7.18111 10.7991Z" fill="#5A57C6"/>
</svg>
